static/logos/upwork-wordmark-color.svg

<svg width="102" height="28" viewBox="0 0 102 28" fill="none" xmlns="http://www.w3.org/2000/svg">
<g clip-path="url(#clip0_1_546)">
<path d="M28.1806 19.0599C27.1353 19.0017 26.1192 18.6934 25.2178 18.1609C24.3164 17.6285 23.556 16.8874 23.0006 15.9999C23.6706 10.6599 25.6206 8.99994 28.2006 8.99994C30.7806 8.99994 32.7406 10.9999 32.7406 13.9999C32.7406 16.9999 30.7406 18.9999 28.2006 18.9999L28.1806 19.0599ZM28.2006 5.65994C26.3798 5.58616 24.5911 6.15465 23.147 7.26604C21.703 8.37743 20.6954 9.961 20.3006 11.7399C19.4446 9.94652 18.797 8.06087 18.3706 6.11994H12.0006V14.0199C12.0006 16.8899 10.7006 19.0199 8.15057 19.0199C5.60057 19.0199 4.15057 16.8999 4.15057 14.0199V6.11994H0.490572V14.0199C0.407507 16.2091 1.16207 18.3476 2.60057 19.9999C3.30271 20.7644 4.16042 21.3697 5.11601 21.7751C6.07159 22.1804 7.10291 22.3764 8.14057 22.3499C12.5506 22.3499 15.6406 18.9599 15.6406 14.1099V8.76994C16.3895 11.6434 17.6276 14.3665 19.3006 16.8199L17.3406 27.9999H21.0606L22.3506 20.0799C22.7776 20.4476 23.2323 20.7819 23.7106 21.0799C24.9533 21.8648 26.3817 22.3065 27.8506 22.3599H28.1906C29.2832 22.3713 30.3669 22.1615 31.3763 21.743C32.3858 21.3246 33.3001 20.7063 34.0643 19.9253C34.8285 19.1442 35.4268 18.2167 35.8232 17.1984C36.2195 16.1801 36.4057 15.0921 36.3706 13.9999C36.3961 12.9118 36.2026 11.8297 35.8015 10.8178C35.4005 9.80594 34.8001 8.88503 34.0361 8.10982C33.2721 7.33461 32.36 6.72091 31.3541 6.3052C30.3482 5.88949 29.269 5.68026 28.1806 5.68994" fill="#4EA52F"/>
<path d="M80.8031 7.85995V6.17995H77.2031V21.81H80.8531V15.69C80.8531 11.92 81.1931 9.20995 86.2531 9.55995V5.99995C83.8931 5.81995 82.0531 6.30995 80.8031 7.86995" fill="#4EA52F"/>
<path d="M55.5078 6.16992L52.8678 17.1099L50.0478 6.16992H45.4078L42.5878 17.1099L39.9478 6.16992H36.2578L40.3078 21.8199H44.6878L47.7278 10.7099L50.7378 21.8199H55.1178L59.3978 6.16992H55.5078Z" fill="#4EA52F"/>
<path d="M67.4172 19.07C64.8272 19.07 62.8872 17.02 62.8872 14.07C62.8872 11.12 64.8872 9.06997 67.4172 9.06997C69.9472 9.06997 71.9972 11 71.9972 14C71.9972 17 69.9972 19 67.4572 19L67.4172 19.07ZM67.4572 5.64997C66.3629 5.63458 65.2769 5.84111 64.2646 6.25709C63.2523 6.67306 62.3348 7.28985 61.5676 8.07023C60.8003 8.8506 60.1991 9.77838 59.8003 10.7975C59.4015 11.8167 59.2133 12.9061 59.2472 14C59.2088 15.0976 59.3919 16.1917 59.7854 17.217C60.1789 18.2424 60.7749 19.178 61.5378 19.9681C62.3008 20.7581 63.215 21.3865 64.2259 21.8156C65.2369 22.2448 66.3239 22.4659 67.4222 22.4659C68.5205 22.4659 69.6075 22.2448 70.6185 21.8156C71.6295 21.3865 72.5437 20.7581 73.3066 19.9681C74.0695 19.178 74.6655 18.2424 75.059 17.217C75.4526 16.1917 75.6356 15.0976 75.5972 14C75.6241 12.9123 75.4318 11.8304 75.0319 10.8186C74.632 9.80676 74.0326 8.88576 73.2694 8.1104C72.5061 7.33504 71.5947 6.72117 70.5893 6.30535C69.5839 5.88953 68.5051 5.68025 67.4172 5.68997" fill="#4EA52F"/>
<path d="M91.4703 14.13H92.3103L97.4003 21.82H101.51L95.6603 13.29C97.0673 12.7098 98.2696 11.7237 99.1138 10.4574C99.958 9.19104 100.406 7.70193 100.4 6.18H96.7703C96.7703 9.55 94.1103 10.83 91.4703 10.83V0H87.8203V21.82H91.4603L91.4703 14.13Z" fill="#4EA52F"/>
</g>
<defs>
<clipPath id="clip0_1_546">
<rect width="102" height="28" fill="white"/>
</clipPath>
</defs>
</svg>

<svg xmlns="http://www.w3.org/2000/svg" width="233.143" height="64" fill="none" viewBox="0 0 102 28"><g fill="#4EA52F" clip-path="url(#a)"><path d="M28.18 19.06A6.54 6.54 0 0 1 23 16c.67-5.34 2.62-7 5.2-7s4.54 2 4.54 5-2 5-4.54 5l-.02.06Zm.02-13.4a7.77 7.77 0 0 0-7.9 6.08 25.996 25.996 0 0 1-1.93-5.62H12v7.9c0 2.87-1.3 5-3.85 5s-4-2.12-4-5v-7.9H.49v7.9A8.61 8.61 0 0 0 2.6 20a7.27 7.27 0 0 0 5.54 2.35c4.41 0 7.5-3.39 7.5-8.24V8.77a25.869 25.869 0 0 0 3.66 8.05L17.34 28h3.72l1.29-7.92c.428.368.882.702 1.36 1a8.318 8.318 0 0 0 4.14 1.28h.34A8.097 8.097 0 0 0 36.37 14a8.12 8.12 0 0 0-8.19-8.31M80.803 7.86V6.18h-3.6v15.63h3.65v-6.12c0-3.77.34-6.48 5.4-6.13V6c-2.36-.18-4.2.31-5.45 1.87M55.508 6.17l-2.64 10.94-2.82-10.94h-4.64l-2.82 10.94-2.64-10.94h-3.69l4.05 15.65h4.38l3.04-11.11 3.01 11.11h4.38l4.28-15.65h-3.89ZM67.417 19.07c-2.59 0-4.53-2.05-4.53-5s2-5 4.53-5c2.53 0 4.58 1.93 4.58 4.93s-2 5-4.54 5l-.04.07Zm.04-13.42a8.1 8.1 0 0 0-8.21 8.35 8.18 8.18 0 1 0 16.35 0 8.11 8.11 0 0 0-8.18-8.31M91.47 14.13h.84l5.09 7.69h4.11l-5.85-8.53a7.66 7.66 0 0 0 4.74-7.11h-3.63c0 3.37-2.66 4.65-5.3 4.65V0h-3.65v21.82h3.64l.01-7.69Z"/></g><defs><clipPath id="a"><path fill="#fff" d="M0 0h102v28H0z"/></clipPath></defs></svg>
